assets/web/icons/check.svg

<svg width="24" height="24" viewBox="0 0 24 24" fill="none" xmlns="http://www.w3.org/2000/svg">
<path d="M9.54991 17.5749C9.41658 17.5749 9.29158 17.5541 9.17491 17.5124C9.05824 17.4707 8.94991 17.3999 8.84991 17.2999L4.54991 12.9999C4.36658 12.8166 4.27908 12.5791 4.28741 12.2874C4.29574 11.9957 4.39158 11.7582 4.57491 11.5749C4.75824 11.3916 4.99158 11.2999 5.27491 11.2999C5.55824 11.2999 5.79158 11.3916 5.97491 11.5749L9.54991 15.1499L18.0249 6.6749C18.2082 6.49157 18.4457 6.3999 18.7374 6.3999C19.0291 6.3999 19.2666 6.49157 19.4499 6.6749C19.6332 6.85824 19.7249 7.09574 19.7249 7.3874C19.7249 7.67907 19.6332 7.91657 19.4499 8.0999L10.2499 17.2999C10.1499 17.3999 10.0416 17.4707 9.92491 17.5124C9.80824 17.5541 9.68324 17.5749 9.54991 17.5749Z" fill="currentColor"/>
</svg>

<svg xmlns="http://www.w3.org/2000/svg" width="24" height="24" fill="currentColor" viewBox="0 0 24 24">
  <path d="M9.55 17.575c-.133 0-.258-.02-.375-.063a.878.878 0 0 1-.325-.212L4.55 13c-.183-.183-.27-.42-.263-.713.009-.291.105-.529.288-.712a.948.948 0 0 1 .7-.275.95.95 0 0 1 .7.275L9.55 15.15l8.475-8.475c.183-.183.42-.275.712-.275s.53.092.713.275c.183.183.275.42.275.712s-.092.53-.275.713l-9.2 9.2c-.1.1-.208.17-.325.212a1.106 1.106 0 0 1-.375.063Z"/>
</svg>
